X: 1
T: Gregor's Reel
C: James Gray
R: reel
B: Alex & James Gray "Tweeddale Collection" v.4 p.5, p.40 #4,7
Z: 2017 John Chambers <jc:trillian.mit.edu>
M: C|
L: 1/8
K: Em
ef |\
"Em"gfed eBBA | "Em"GFEG "D"FDDF | "Em"E2BE dEBE | "D"ADDA FAdf |
"Em"gfed eBBA | "Em"GFEG "D"FDDF | "Em"E2BE dEBE | "D"ADDF "Em"E2 :|
|: ED |\
"C"C3D ECEG | "D" FDDA "G"BAGF | "Em"E3F GEGB | "D"ADD^c "Bm"dcBA |
"G"G3A BGBd | "A"^cAAe "D"fedf | "Em"gfed "G"BGGB | "D"ADDF "Em"E2 :|
